images_sukapura_svg/cmd/32/bibliographycomponent.svg

<svg height="32" viewBox="0 0 32 32" width="32" xmlns="http://www.w3.org/2000/svg" xmlns:xlink="http://www.w3.org/1999/xlink"><linearGradient id="a" gradientUnits="userSpaceOnUse" x1="-19.983051" x2="-19.983051" y1="9.016949" y2="-5.983051"><stop offset="0" stop-color="#0040dd"/><stop offset="1" stop-color="#0a84ff"/></linearGradient><radialGradient id="b" cx="22" cy="9.076923" gradientTransform="matrix(1.3 .00000001 -.00000002 1.5 -6.6 -6.615385)" gradientUnits="userSpaceOnUse" r="10"><stop offset="0" stop-color="#d7d7d7"/><stop offset=".29999998" stop-color="#f7f7f7"/><stop offset="1" stop-color="#fff"/></radialGradient><linearGradient id="c" gradientUnits="userSpaceOnUse" x1="20" x2="23" y1="9" y2="6"><stop offset="0" stop-color="#fff"/><stop offset=".77967989" stop-color="#f1f1f1"/><stop offset="1" stop-color="#d5d5d5"/></linearGradient><g transform="translate(-1.99762)"><path d="m6 3v26h19.99762l.00238-19-7-7z" fill="url(#b)"/><path d="m5.9976202 2c-.554 0-1 .446-1 1v26c0 .554.446 1 1 1h19.9999998c.554 0 .892483-.456533 1-1v-10.109375-10.5052752l-6.508082-6.3853498zm0 1h12.9999998v6c0 .6726441.491378 1 1 1h6v19h-19.9999998z" fill="#98989d"/><path d="m20 9h6l-6-6z" fill="url(#c)" fill-rule="evenodd"/></g><g transform="translate(13 14)"><path d="m0 1h16v15h-16z" fill="url(#a)"/><path d="m1 0v15h7c-1.6828986-.870742-2.6974265-1.079693-3.9042969-1.095703l-2.0957031.095703v-13c5 0 5 1 6 2 1-1 1-2 6-2v13l-2.773438-.115234c-.982758.056789-1.940045.31275-3.226562 1.115234h7v-15c-3 0-3 0-7 2-3-2-3-2-7-2z" fill="#69696e"/><path d="m8 15c-1.6828986-.870742-2.6974265-1.079693-3.9042969-1.095703l-2.0957031.095703v-13c5 0 5 1 6 2 1-1 1-2 6-2v13l-2.773438-.115234c-.982758.056789-1.940045.31275-3.226562 1.115234z" fill="#fff"/><path d="m20 16v12.533203c.311417.131528.63429.277577 1 .466797.357658-.223095.685611-.394936 1-.541016v-12.458984h-.058594c-.358991.305975-.593219.651813-.941406 1-.348187-.348187-.582415-.694025-.941406-1z" fill="#98989d" transform="translate(-13 -14)"/></g></svg>

<?xml version="1.0" encoding="UTF-8" standalone="no"?>
<svg
   xmlns:dc="http://purl.org/dc/elements/1.1/"
   xmlns:cc="http://creativecommons.org/ns#"
   xmlns:rdf="http://www.w3.org/1999/02/22-rdf-syntax-ns#"
   xmlns:svg="http://www.w3.org/2000/svg"
   xmlns="http://www.w3.org/2000/svg"
   xmlns:xlink="http://www.w3.org/1999/xlink"
   xmlns:sodipodi="http://sodipodi.sourceforge.net/DTD/sodipodi-0.dtd"
   xmlns:inkscape="http://www.inkscape.org/namespaces/inkscape"
   viewBox="0 0 32 32"
   version="1.1"
   id="svg10"
   sodipodi:docname="bibliographycomponent.svg"
   inkscape:export-filename="/home/rizmut/Dokumen/Rizmut/Github/libreoffice-style-sukapura/images_sukapura/cmd/32/bibliographycomponent.png"
   inkscape:export-xdpi="96"
   inkscape:export-ydpi="96"
   inkscape:version="0.92.3 (unknown)"
   width="32"
   height="32">
  <metadata
     id="metadata16">
    <rdf:RDF>
      <cc:Work
         rdf:about="">
        <dc:format>image/svg+xml</dc:format>
        <dc:type
           rdf:resource="http://purl.org/dc/dcmitype/StillImage" />
        <dc:title></dc:title>
      </cc:Work>
    </rdf:RDF>
  </metadata>
  <defs
     id="defs14">
    <linearGradient
       gradientTransform="translate(-26.983051,-6.9830508)"
       id="a"
       gradientUnits="userSpaceOnUse"
       x1="14"
       x2="13.79661"
       y1="22"
       y2="2.1355929">
      <stop
         offset="0"
         stop-color="#0040dd"
         id="stop2" />
      <stop
         offset="1"
         stop-color="#0a84ff"
         id="stop4" />
    </linearGradient>
    <linearGradient
       inkscape:collect="always"
       xlink:href="#a"
       id="linearGradient880"
       x1="7"
       y1="16"
       x2="7"
       y2="1"
       gradientUnits="userSpaceOnUse" />
    <linearGradient
       gradientTransform="translate(-1,-5)"
       id="a-2"
       gradientUnits="userSpaceOnUse"
       x1="11"
       x2="11"
       y1="21"
       y2="3">
      <stop
         offset="0"
         stop-color="#f7f7f7"
         id="stop2-2" />
      <stop
         offset=".22222222"
         stop-color="#fff"
         id="stop4-9" />
      <stop
         offset=".83333331"
         stop-color="#fff"
         id="stop6-3" />
      <stop
         offset="1"
         stop-color="#f7f7f7"
         id="stop8-6" />
    </linearGradient>
    <linearGradient
       gradientTransform="matrix(1,0,0,0.53846154,-6,5.3076923)"
       id="b"
       gradientUnits="userSpaceOnUse"
       x1="12"
       x2="12"
       y1="18"
       y2="5">
      <stop
         offset="0"
         stop-color="#cfcfcf"
         id="stop11" />
      <stop
         offset="0.15476191"
         stop-color="#e7e7e7"
         id="stop13" />
      <stop
         offset="0.15476191"
         stop-color="#fff"
         id="stop15" />
      <stop
         offset=".5"
         stop-color="#f3f3f3"
         id="stop17" />
      <stop
         offset="0.85714287"
         stop-color="#f9f9f9"
         id="stop19" />
      <stop
         offset="0.85714287"
         stop-color="#fcfcfc"
         id="stop21" />
      <stop
         offset="1"
         stop-color="#fff"
         id="stop23" />
    </linearGradient>
    <linearGradient
       gradientTransform="matrix(1,0,0,0.39999999,-6,6.6999997)"
       id="c"
       gradientUnits="userSpaceOnUse"
       x1="12"
       x2="12"
       y1="12"
       y2="18.250002">
      <stop
         offset="0"
         stop-color="#f8f8f8"
         id="stop26" />
      <stop
         offset="1"
         stop-color="#fff"
         id="stop28" />
    </linearGradient>
    <radialGradient
       id="a-1"
       cx="22"
       cy="9.0769234"
       gradientTransform="matrix(1.3,1e-8,-2e-8,1.5,-6.6,-6.615385)"
       gradientUnits="userSpaceOnUse"
       r="10">
      <stop
         offset="0"
         stop-color="#d7d7d7"
         id="stop2-27" />
      <stop
         offset=".29999998"
         stop-color="#f7f7f7"
         id="stop4-0" />
      <stop
         offset="1"
         stop-color="#fff"
         id="stop6" />
    </radialGradient>
    <linearGradient
       id="b-9"
       gradientUnits="userSpaceOnUse"
       x1="20"
       x2="23"
       y1="9"
       y2="6">
      <stop
         offset="0"
         stop-color="#fff"
         id="stop9" />
      <stop
         offset=".77967989"
         stop-color="#f1f1f1"
         id="stop11-3" />
      <stop
         offset="1"
         stop-color="#d5d5d5"
         id="stop13-6" />
    </linearGradient>
  </defs>
  <sodipodi:namedview
     pagecolor="#ffffff"
     bordercolor="#666666"
     borderopacity="1"
     objecttolerance="10"
     gridtolerance="10"
     guidetolerance="10"
     inkscape:pageopacity="0"
     inkscape:pageshadow="2"
     inkscape:window-width="1366"
     inkscape:window-height="706"
     id="namedview12"
     showgrid="true"
     inkscape:zoom="10.429825"
     inkscape:cx="19.192889"
     inkscape:cy="0.97220767"
     inkscape:window-x="0"
     inkscape:window-y="0"
     inkscape:window-maximized="1"
     inkscape:current-layer="svg10">
    <inkscape:grid
       type="xygrid"
       id="grid823"
       spacingx="0.5"
       spacingy="0.5"
       empspacing="2" />
  </sodipodi:namedview>
  <g
     id="g838"
     transform="translate(-1.9976202)">
    <path
       style="fill:url(#a-1)"
       inkscape:connector-curvature="0"
       id="path16"
       d="M 6,3 V 29 H 25.99762 L 26,10 19,3 Z" />
    <path
       style="fill:#98989d"
       inkscape:connector-curvature="0"
       id="path18"
       d="m 5.9976202,2 c -0.554,0 -1,0.446 -1,1 v 26 c 0,0.554 0.446,1 1,1 H 25.99762 c 0.554,0 0.892483,-0.456533 1,-1 V 18.890625 8.3853498 L 20.489538,2 Z m 0,1 H 18.99762 v 6 c 0,0.6726441 0.491378,1 1,1 h 6 V 29 H 5.9976202 Z" />
    <path
       style="fill:url(#b-9);fill-rule:evenodd"
       inkscape:connector-curvature="0"
       id="path20"
       d="m 20,9 h 6 L 20,3 Z" />
  </g>
  <g
     id="g936"
     transform="translate(13,14)">
    <rect
       y="1"
       x="0"
       height="15"
       width="16"
       id="rect872"
       style="fill:url(#linearGradient880);fill-opacity:1;stroke:none;stroke-opacity:1" />
    <path
       style="fill:#69696e;fill-opacity:1;stroke:none"
       sodipodi:nodetypes="ccccccccccccccc"
       inkscape:connector-curvature="0"
       id="path2"
       d="M 1,0 V 15 H 8 C 6.3171014,14.129258 5.3025735,13.920307 4.0957031,13.904297 L 2,14 V 1 C 7,1 7,2 8,3 9,2 9,1 14,1 V 14 L 11.226562,13.884766 C 10.243804,13.941555 9.286517,14.197516 8,15 h 7 V 0 C 12,0 12,0 8,2 5,0 5,0 1,0 Z" />
    <path
       d="M 8,15 C 6.3171014,14.129258 5.3025735,13.920307 4.0957031,13.904297 L 2,14 V 1 C 7,1 7,2 8,3 9,2 9,1 14,1 V 14 L 11.226562,13.884766 C 10.243804,13.941555 9.286517,14.197516 8,15 Z"
       id="path882"
       inkscape:connector-curvature="0"
       sodipodi:nodetypes="cccccccccc"
       style="fill:#ffffff;fill-opacity:1;stroke:none" />
    <path
       style="fill:#98989d;fill-opacity:1;stroke:none;stroke-opacity:1"
       d="M 20 16 L 20 28.533203 C 20.311417 28.664731 20.63429 28.81078 21 29 C 21.357658 28.776905 21.685611 28.605064 22 28.458984 L 22 16 L 21.941406 16 C 21.582415 16.305975 21.348187 16.651813 21 17 C 20.651813 16.651813 20.417585 16.305975 20.058594 16 L 20 16 z "
       transform="translate(-13,-14)"
       id="rect894" />
  </g>
</svg>
